X:1
T:Title
%%score 1 2 3
L:1/8
M:2/2
K:C
V:1 treble nm="Part_1"
V:2 treble-8 nm="Part_2"
V:3 treble-8 nm="Part_3"
V:1
 E8 | D8 | (3:2:2E8 F4 | G8 | A6 G2 | A4 B4 | G4 c4- | c2 B2 A4- | A2 G2 G4- | G4 ^F4 | G8 | %11
 z4 F4- | F2 E2 E4- | E4 D4 | E4 G4 | A8 | G4 F4 | E8 | C4 D4 | E4 F4- | F2 E2 E4- | E4 D4 | E8 | %23
 z8 | E8 | D8 | E8 | F6 E2 | C4 D4- | D2 C2 C4- | C4 B,4 | C8 | z8 | E8 | F8- | F8 | G8 | F4 E4- | %38
 E4 z4 | D4 E4 | C4 F4- | F2 E2 E4- | E4 D4 | E8- | E8 | z8 | z8 | G8 | A8 | B8 | c6 B2 | %51
 A2 G2 G4- | G4 ^F4 | G8 | A4 B4 | c8 | A8 | G8 | z4 A4- | A2 G2 (3:2:1G6- | (3G2 F4 F6- | %61
 (3:2:2F2 E4 F4 | G6 F2 | E2 D2 E4- | E4 (3:2:1A6- | (3:2:2A2 G4 G4- | G2 F2 F4- | F4 E4 | F6 D2 | %69
 E4 G4 | F2 E2 D4- | D4 C4 | D8 | F8 | G8 | A8 | A8 | G4 F4- | F2 E2 E4- | E4 D4 | E4 F4- | %81
 F2 E2 F4 | G4 E4- | E4 D4 | E8 |] %85
V:2
 E8 | G4 F4 | E8- | E8 | D8 | d8 | e8 | c4 d4 | B4 c4 | A8 | G8 | A8 | G8 | F8 | z4 E4 | D4 F4 | %16
 E4 A4- | A8 | A4 F4 | G4 A4 | E4 G4 | F8 | E8 | z8 | G8- | G8 | G8 | D8 | F8 | G4 E4 | D8 | C8- | %32
 C8 | c8 | A8 | d8 | z4 B4 | A4 B4 | c8 | B4 G4 | A8 | G4 E4 | F8 | E8 | z8 | G8 | A8 | B8 | c8 | %49
 d8 | c8 | d4 B4 | A8 | G8 | z8 | A6 B2 | c8- | c8 | A8 | F4 C4- | C4 D4- | D4 A4 | G4 B4 | c8- | %64
 c8 | B8 | A4 F4 | G8 | F8 | G8 | A4 F4 | E8 | D8- | D8 | z8 | D8 | F8 | G4 A4 | B4 c4- | c4 B4 | %80
 G4 A4- | A4 D4 | E4 G4 | F8 | E8 |] %85
V:3
 B8 | B4 A4 | B8 | c8 | d4 A4 | D4 G4 | E4 A4- | A4 D4 | E8 | D8 | d8 | c8 | B8 | z4 A4 | B6 c2 | %15
 d4 c2 d2 | e4 c4 | c8 | z4 A4 | B4 c4- | c2 B2 B4- | B4 A4 | B8 | z8 | B8- | B8 | B4 c4 | %27
 (3:2:2d8 c4 | A8 | B4 G4- | G4 F4 | G8- | G8 | C8 | D8- | D8 | E8 | F4 G4 | C8 | G4 C4 | c8 | %41
 B4 B4- | B4 A4 | B8 | z8 | B8 | c8 | G8 | C8 | G8 | C8 | G8 | D8 | d8 | A8 | z8 | (3:2:2F8 E4 | %57
 C8 | z4 c4- | c8 | c4 A4- | A4 D4 | E8 | C8 | F8 | G4 E4 | F8 | C8 | (3:2:2c8 A4 | B8 | c4 A4- | %71
 A4 G4 | A8 | d8 | B4 c4 | d8 | z4 c4 | B4 c4 | G4 C4- | C4 G4 | C4 c4- | c4 d4 | c4 B4- | B4 A4 | %84
 B8 |] %85

